X: 23321
T: Legacy, The
R: jig
M: 6/8
K: Gmajor
|:e|GGG BGB|d2e g3|GGG BGB|dBA A2e|
GGG BGB|d2e g3|agf g2e|dBA A2:|
|:e|A2e edB|d2e dBA|A2e edB|dBA A2e|
A2e edB|d2e g2e|agf g2e|dBA A2:|

